X: 30513
T: Oliviers
R: reel
M: 4/4
K: Dmajor
|:A/B/c de f2 fa|g2 gf gfec|A/B/c de f2 ff|ageg fd d2:|
a2^ga f4|agfg e4|a2^ga f4|ageg fd d2|
a2^ga f4|agfg e4|a2^ga f4|ageg fd de|
fedf edce|dcBd cBAc|BAGB AGFA|GFEG FEDe|
fedf edce|dcBd cBAc|BAGB AGFA|GFEG FE D2|

